static/assets/i/aosc.svg

<?xml version="1.0" encoding="UTF-8" standalone="no"?>
<!-- Created with Inkscape (http://www.inkscape.org/) -->

<svg
   xmlns:dc="http://purl.org/dc/elements/1.1/"
   xmlns:cc="http://creativecommons.org/ns#"
   xmlns:rdf="http://www.w3.org/1999/02/22-rdf-syntax-ns#"
   xmlns:svg="http://www.w3.org/2000/svg"
   xmlns="http://www.w3.org/2000/svg"
   xmlns:sodipodi="http://sodipodi.sourceforge.net/DTD/sodipodi-0.dtd"
   xmlns:inkscape="http://www.inkscape.org/namespaces/inkscape"
   width="1000"
   height="1000"
   viewBox="0 0 1000 1000"
   id="svg2"
   version="1.1"
   inkscape:version="0.91 r13725"
   sodipodi:docname="Logo of Anthon Open Source Community.svg"
   inkscape:export-filename="Logo of Anthon Open Source Community.png"
   inkscape:export-xdpi="300"
   inkscape:export-ydpi="300">
  <title
     id="title3336">Logo of Anthon Open Source Community</title>
  <defs
     id="defs4" />
  <sodipodi:namedview
     id="base"
     pagecolor="#ffffff"
     bordercolor="#666666"
     borderopacity="1.0"
     inkscape:pageopacity="0.0"
     inkscape:pageshadow="2"
     inkscape:zoom="0.524"
     inkscape:cx="500"
     inkscape:cy="500"
     inkscape:document-units="px"
     inkscape:current-layer="layer1"
     showgrid="true"
     units="px"
     inkscape:snap-nodes="true"
     inkscape:snap-others="true"
     inkscape:snap-global="false"
     showguides="false"
     inkscape:snap-bbox="false"
     inkscape:snap-to-guides="true" />
  <metadata
     id="metadata7">
    <rdf:RDF>
      <cc:Work
         rdf:about="">
        <dc:format>image/svg+xml</dc:format>
        <dc:type
           rdf:resource="http://purl.org/dc/dcmitype/StillImage" />
        <dc:title>Logo of Anthon Open Source Community</dc:title>
        <dc:creator>
          <cc:Agent>
            <dc:title>Junde Yi</dc:title>
          </cc:Agent>
        </dc:creator>
        <cc:license
           rdf:resource="http://creativecommons.org/licenses/by-sa/3.0/" />
        <dc:contributor>
          <cc:Agent>
            <dc:title>Tom Yan, Jeff Bai, Junde Yi</dc:title>
          </cc:Agent>
        </dc:contributor>
      </cc:Work>
      <cc:License
         rdf:about="http://creativecommons.org/licenses/by-sa/3.0/">
        <cc:permits
           rdf:resource="http://creativecommons.org/ns#Reproduction" />
        <cc:permits
           rdf:resource="http://creativecommons.org/ns#Distribution" />
        <cc:requires
           rdf:resource="http://creativecommons.org/ns#Notice" />
        <cc:requires
           rdf:resource="http://creativecommons.org/ns#Attribution" />
        <cc:permits
           rdf:resource="http://creativecommons.org/ns#DerivativeWorks" />
        <cc:requires
           rdf:resource="http://creativecommons.org/ns#ShareAlike" />
      </cc:License>
    </rdf:RDF>
  </metadata>
  <g
     inkscape:label="Layer 1"
     inkscape:groupmode="layer"
     id="layer1"
     transform="translate(0,-52.362161)">
    <circle
       style="color:#000000;display:inline;overflow:visible;visibility:visible;opacity:1;fill:#000000;fill-opacity:1;fill-rule:nonzero;stroke:none;stroke-width:2.29900002;stroke-linejoin:miter;stroke-miterlimit:4;stroke-dasharray:none;stroke-dashoffset:0;stroke-opacity:1;marker:none;enable-background:accumulate"
       id="path8317"
       cx="501.58014"
       cy="552.36218"
       r="475.19086" />
    <circle
       r="54.066284"
       cy="550.36218"
       cx="524"
       id="circle8306"
       style="color:#000000;display:inline;overflow:visible;visibility:visible;opacity:1;fill:#ffffff;fill-opacity:1;fill-rule:nonzero;stroke:#ffffff;stroke-width:0.96379739;stroke-linejoin:miter;stroke-miterlimit:4;stroke-dasharray:none;stroke-dashoffset:0;stroke-opacity:1;marker:none;enable-background:accumulate" />
    <path
       style="color:#000000;display:inline;overflow:visible;visibility:visible;opacity:1;fill:#c00000;fill-opacity:1;fill-rule:nonzero;stroke:none;stroke-width:4.75142097;stroke-linejoin:miter;stroke-miterlimit:4;stroke-dasharray:none;stroke-dashoffset:0;stroke-opacity:1;marker:none;enable-background:accumulate"
       d="M 513.8418,176.91489 A 373.65318,373.65318 0 0 0 140.18945,550.56724 373.65318,373.65318 0 0 0 513.8418,924.21958 l 0,-182.49414 A 191.87151,191.87151 0 0 1 332.12891,550.36216 191.87151,191.87151 0 0 1 513.8418,358.85044 l 0,-181.93555 z"
       id="circle8373"
       inkscape:connector-curvature="0" />
    <path
       style="color:#000000;display:inline;overflow:visible;visibility:visible;opacity:1;fill:#0070c0;fill-opacity:1;fill-rule:nonzero;stroke:none;stroke-width:4.75142097;stroke-linejoin:miter;stroke-miterlimit:4;stroke-dasharray:none;stroke-dashoffset:0;stroke-opacity:1;marker:none;enable-background:accumulate"
       d="M 514.76758,394.05161 A 156.0855,156.0855 0 0 0 358.68359,550.13755 156.0855,156.0855 0 0 0 514.76758,706.22154 l 0,-74.27149 a 82.154182,82.154182 0 0 1 -72.92188,-81.58789 82.154182,82.154182 0 0 1 72.92188,-81.5332 l 0,-74.77735 z"
       id="path8382"
       inkscape:connector-curvature="0" />
    <path
       style="color:#000000;display:inline;overflow:visible;visibility:visible;opacity:1;fill:#ffc000;fill-opacity:1;fill-rule:nonzero;stroke:none;stroke-width:4.75142097;stroke-linejoin:miter;stroke-miterlimit:4;stroke-dasharray:none;stroke-dashoffset:0;stroke-opacity:1;marker:none;enable-background:accumulate"
       d="m 531.56836,230.53013 0,160.87305 A 159.33853,159.33853 0 0 1 683.33789,550.36216 159.33853,159.33853 0 0 1 531.56836,709.43247 l 0,160.86719 A 319.88508,319.88508 0 0 0 851.45312,550.41489 319.88508,319.88508 0 0 0 531.56836,230.53013 Z"
       id="path8387"
       inkscape:connector-curvature="0" />
  </g>
</svg>

<svg xmlns="http://www.w3.org/2000/svg" width="1000" height="1000" viewBox="0 0 1000 1000"><title>Logo of Anthon Open Source Community</title><g transform="translate(0 -52.362)" color="#000"><circle cx="501.58" cy="552.362" r="475.191" overflow="visible"/><circle r="54.066" cy="550.362" cx="524" overflow="visible" fill="#fff" stroke="#fff" stroke-width=".964"/><path d="M513.842 176.915A373.653 373.653 0 0 0 140.19 550.567 373.653 373.653 0 0 0 513.84 924.22V741.725a191.872 191.872 0 0 1-181.71-191.363A191.872 191.872 0 0 1 513.84 358.85V176.915z" overflow="visible" fill="#c00000"/><path d="M514.768 394.052a156.085 156.085 0 0 0-156.084 156.086 156.085 156.085 0 0 0 156.084 156.084V631.95a82.154 82.154 0 0 1-72.922-81.588 82.154 82.154 0 0 1 72.922-81.533v-74.78z" overflow="visible" fill="#0070c0"/><path d="M531.568 230.53v160.873a159.34 159.34 0 0 1 151.77 158.96 159.34 159.34 0 0 1-151.77 159.07V870.3a319.885 319.885 0 0 0 319.885-319.885A319.885 319.885 0 0 0 531.568 230.53z" overflow="visible" fill="#ffc000"/></g></svg>
